(Optimized by gcodelaseropt)
(Written by Andrew L. Sandoval)
(Generated by PartKam Version 0.05)

G21 G90 G40

(follow path 1)
M5 (laser off - was G0 Z15)
T0 M6
G17
(M3 - removed in laser mode)
G0 X20.04720812182741 Y12.531472081218274
S255
M3 (laser on - was G1 Z-10 F800)
G3 X20.11421319796954 Y12.01269035532995 I2 J0 F1500
G3 X20.314720812182742 Y11.530456852791877 I1.9314720812182742 J0.5177664974619289
G3 X20.631979695431472 Y11.116751269035532 I1.7309644670050761 J1
G3 X21.048223350253807 Y10.799492385786802 I1.4137055837563453 J1.4137055837563453
G3 X21.53045685279188 Y10.598984771573603 I1 J1.7309644670050761
G3 X22.048223350253807 Y10.530456852791879 I0.5177664974619289 J1.9314720812182742
G1 X68.0482233502538 Y10.530456852791879
G3 X68.81218274111676 Y10.682741116751268 I0 J2
G3 X69.46192893401016 Y11.116751269035532 I-0.766497461928934 J1.8477157360406091
G3 X69.89593908629442 Y11.766497461928934 I-1.4137055837563453 J1.4137055837563453
G3 X70.0482233502538 Y12.530456852791879 I-1.8477157360406091 J0.766497461928934
G1 X70.0482233502538 Y38.53045685279188
G3 X69.89593908629442 Y39.296954314720814 I-2 J0
G3 X69.46192893401016 Y39.94670050761422 I-1.8477157360406091 J-0.766497461928934
G3 X68.81218274111676 Y40.378172588832484 I-1.4137055837563453 J-1.4137055837563453
G3 X68.0482233502538 Y40.53045685279188 I-0.766497461928934 J-1.8477157360406091
G1 X22.048223350253807 Y40.53045685279188
G3 X21.281725888324875 Y40.378172588832484 I0 J-2
G3 X20.631979695431472 Y39.94670050761422 I0.766497461928934 J-1.8477157360406091
G3 X20.200507614213198 Y39.296954314720814 I1.4137055837563453 J-1.4137055837563453
G3 X20.048223350253807 Y38.53045685279188 I1.8477157360406091 J-0.766497461928934
G1 X20.048223350253807 Y12.530456852791879
M5 (laser off - was G0 Z15)
M5
~
