(Optimized by gcodelaseropt)
(Written by Andrew L. Sandoval)
(Optimized by gcodelaseropt)
(Written by Andrew L. Sandoval)
(Generated by PartKam Version 0.05)
G21 G90 G40

(follow path 1)
M5 (laser off - was G0 Z0)
T0 M6
G17
(M3 - removed in laser mode)
G0 X19.761167512690356 Y19.854314720812184

S255
M3 (laser on - was G1 Z-10 F800)
G3 X20.101522842639593 Y17.266497461928935 I10 J0 F1500
G3 X21.101522842639593 Y14.855329949238579 I9.65989847715736 J2.5888324873096447
G3 X22.690355329949238 Y12.784263959390863 I8.65989847715736 J5
G3 X24.761421319796955 Y11.19289340101523 I7.071065989847716 J7.071065989847716
G3 X27.172588832487307 Y10.195431472081218 I5 J8.65989847715736
G3 X29.761421319796955 Y9.855329949238579 I2.5888324873096447 J9.65989847715736
G1 X59.76142131979695 Y9.855329949238579
G3 X62.3502538071066 Y10.195431472081218 I0 J10
G3 X64.76142131979695 Y11.19289340101523 I-2.5888324873096447 J9.65989847715736
G3 X66.83248730964466 Y12.784263959390863 I-5 J8.65989847715736
G3 X68.42131979695432 Y14.855329949238579 I-7.071065989847716 J7.071065989847716
G3 X69.42131979695431 Y17.266497461928935 I-8.65989847715736 J5
G3 X69.76142131979695 Y19.855329949238577 I-9.65989847715736 J2.5888324873096447
G1 X69.76142131979695 Y29.85532994923858
G3 X69.42131979695431 Y32.441624365482234 I-10 J0
G3 X68.42131979695432 Y34.85532994923858 I-9.65989847715736 J-2.5888324873096447
G3 X66.83248730964466 Y36.9263959390863 I-8.65989847715736 J-5
G3 X64.76142131979695 Y38.515228426395936 I-7.071065989847716 J-7.071065989847716
G3 X62.3502538071066 Y39.51269035532995 I-5 J-8.65989847715736
G3 X59.76142131979695 Y39.85532994923858 I-2.5888324873096447 J-9.65989847715736
G1 X29.761421319796955 Y39.85532994923858
G3 X27.172588832487307 Y39.51269035532995 I0 J-10
G3 X24.761421319796955 Y38.515228426395936 I2.5888324873096447 J-9.65989847715736
G3 X22.690355329949238 Y36.9263959390863 I5 J-8.65989847715736
G3 X21.101522842639593 Y34.85532994923858 I7.071065989847716 J-7.071065989847716
G3 X20.101522842639593 Y32.441624365482234 I8.65989847715736 J-5
G3 X19.761421319796955 Y29.85532994923858 I9.65989847715736 J-2.5888324873096447
G1 X19.761421319796955 Y19.855329949238577

(follow path 2)
M5 (laser off - was G0 Z0)
G0 X29.76548223350254 Y25.493401015228425
M3 (laser on - was G1 Z-10 F800)
G2 X30.14720812182741 Y27.406091370558375 I5 J0 F1500
G2 X31.230964467005077 Y29.02791878172589 I4.619289340101523 J-1.9137055837563453
G2 X32.85279187817259 Y30.111675126903556 I3.535532994923858 J-3.535532994923858
G2 X34.766497461928935 Y30.492385786802032 I1.9137055837563453 J-4.619289340101523
G2 X36.68020304568528 Y30.111675126903556 I0 J-5
G2 X38.30203045685279 Y29.02791878172589 I-1.9137055837563453 J-4.619289340101523
G2 X39.38578680203045 Y27.406091370558375 I-3.535532994923858 J-3.535532994923858
G2 X39.766497461928935 Y25.492385786802032 I-4.619289340101523 J-1.9137055837563453
G2 X39.38578680203045 Y23.578680203045685 I-5 J0
G2 X38.30203045685279 Y21.956852791878173 I-4.619289340101523 J1.9137055837563453
G2 X36.68020304568528 Y20.873096446700508 I-3.535532994923858 J3.535532994923858
G2 X34.766497461928935 Y20.492385786802032 I-1.9137055837563453 J4.619289340101523
G2 X32.85279187817259 Y20.873096446700508 I0 J5
G2 X31.230964467005077 Y21.956852791878173 I1.9137055837563453 J4.619289340101523
G2 X30.14720812182741 Y23.578680203045685 I3.535532994923858 J3.535532994923858
G2 X29.766497461928935 Y25.492385786802032 I4.619289340101523 J1.9137055837563453

(follow path 3)
M5 (laser off - was G0 Z0)
G0 X49.63223350253807 Y25.493401015228425
M3 (laser on - was G1 Z-10 F800)
G2 X50.01269035532995 Y27.406091370558375 I5 J0 F1500
G2 X51.09644670050762 Y29.02791878172589 I4.619289340101523 J-1.9137055837563453
G2 X52.71827411167513 Y30.111675126903556 I3.535532994923858 J-3.535532994923858
G2 X54.63197969543147 Y30.492385786802032 I1.9137055837563453 J-4.619289340101523
G2 X56.54568527918782 Y30.111675126903556 I0 J-5
G2 X58.16751269035534 Y29.02791878172589 I-1.9137055837563453 J-4.619289340101523
G2 X59.25126903553299 Y27.406091370558375 I-3.535532994923858 J-3.535532994923858
G2 X59.63197969543147 Y25.492385786802032 I-4.619289340101523 J-1.9137055837563453
G2 X59.25126903553299 Y23.578680203045685 I-5 J0
G2 X58.16751269035534 Y21.956852791878173 I-4.619289340101523 J1.9137055837563453
G2 X56.54568527918782 Y20.873096446700508 I-3.535532994923858 J3.535532994923858
G2 X54.63197969543147 Y20.492385786802032 I-1.9137055837563453 J4.619289340101523
G2 X52.71827411167513 Y20.873096446700508 I0 J5
G2 X51.09644670050762 Y21.956852791878173 I1.9137055837563453 J4.619289340101523
G2 X50.01269035532995 Y23.578680203045685 I3.535532994923858 J3.535532994923858
G2 X49.63197969543147 Y25.492385786802032 I4.619289340101523 J1.9137055837563453
M5 (laser off - was G0 Z0)
M5
M30
