(Optimized by gcodelaseropt)
(Written by Andrew L. Sandoval)
(Generated by PartKam Version 0.05)

G21 G90 G40

(follow path 1)
M5 (laser off - was G0 Z0)
T0 M6
G17
(M3 - removed in laser mode)
G0 X29.477157360406093 Y30.12741116751269
S255
M3 (laser on - was G1 Z-10 F800)
G3 X30.15736040609137 Y24.951776649746193 I20 J0 F1500
G3 X32.15736040609137 Y20.126903553299492 I19.31725888324873 J5.1751269035533
G3 X35.33502538071066 Y15.984771573604062 I17.31979695431472 J10
G3 X39.47715736040609 Y12.807106598984772 I14.142131979695431 J14.142131979695431
G3 X44.2994923857868 Y10.809644670050762 I10 J17.31979695431472
G3 X49.477157360406096 Y10.126903553299494 I5.1751269035533 J19.31725888324873
G1 X109.47715736040608 Y10.126903553299494
G3 X114.65228426395939 Y10.809644670050762 I0 J20
G3 X119.47715736040608 Y12.807106598984772 I-5.1751269035533 J19.31725888324873
G3 X123.61928934010152 Y15.984771573604062 I-10 J17.31979695431472
G3 X126.79695431472082 Y20.126903553299492 I-14.142131979695431 J14.142131979695431
G3 X128.7944162436548 Y24.951776649746193 I-17.31979695431472 J10
G3 X129.4771573604061 Y30.126903553299492 I-19.31725888324873 J5.1751269035533
G1 X129.4771573604061 Y40.1269035532995
G3 X128.7944162436548 Y45.30456852791878 I-20 J0
G3 X126.79695431472082 Y50.1269035532995 I-19.31725888324873 J-5.1751269035533
G3 X123.61928934010152 Y54.26903553299493 I-17.31979695431472 J-10
G3 X119.47715736040608 Y57.44670050761421 I-14.142131979695431 J-14.142131979695431
G3 X114.65228426395939 Y59.44670050761421 I-10 J-17.31979695431472
G3 X109.47715736040608 Y60.1269035532995 I-5.1751269035533 J-19.31725888324873
G1 X49.477157360406096 Y60.1269035532995
G3 X44.2994923857868 Y59.44670050761421 I0 J-20
G3 X39.47715736040609 Y57.44670050761421 I5.1751269035533 J-19.31725888324873
G3 X35.33502538071066 Y54.26903553299493 I10 J-17.31979695431472
G3 X32.15736040609137 Y50.1269035532995 I14.142131979695431 J-14.142131979695431
G3 X30.15736040609137 Y45.30456852791878 I17.31979695431472 J-10
G3 X29.47715736040609 Y40.1269035532995 I19.31725888324873 J-5.1751269035533
G1 X29.47715736040609 Y30.126903553299492
M5 (laser off - was G0 Z0)
G0 X43.889086294416245 Y34.85
M3 (laser on - was G1 Z-10 F800)
G2 X44.17766497461929 Y37.898477157360404 I16.274111675126903 J0 F1500
G2 X44.98730964467005 Y40.609137055837564 I13.624365482233502 J-2.5989847715736043
G2 X46.32994923857868 Y43.09644670050761 I12.81472081218274 J-5.307106598984772
G2 X48.28172588832487 Y45.45685279187818 I13.459390862944163 J-9.147208121827411
G2 X50.642131979695435 Y47.40862944162436 I11.50761421319797 J-11.50761421319797
G2 X53.13197969543147 Y48.751269035533 I7.7969543147208125 J-11.472081218274113
G2 X55.84010152284264 Y49.56091370558376 I5.307106598984772 J-12.81472081218274
G2 X58.88832487309645 Y49.8502538071066 I3.048223350253807 J-15.987309644670052
G2 X61.93908629441624 Y49.56091370558376 I0 J-16.274111675126903
G2 X64.64720812182742 Y48.751269035533 I-2.5989847715736043 J-13.624365482233502
G2 X67.13705583756345 Y47.40862944162436 I-5.307106598984772 J-12.81472081218274
G2 X69.49492385786802 Y45.45685279187818 I-9.147208121827411 J-13.459390862944163
G2 X71.44923857868021 Y43.09644670050761 I-11.50761421319797 J-11.50761421319797
G2 X72.79187817258884 Y40.609137055837564 I-11.472081218274113 J-7.7969543147208125
G2 X73.6015228426396 Y37.898477157360404 I-12.81472081218274 J-5.307106598984772
G2 X73.88832487309645 Y34.8502538071066 I-15.987309644670052 J-3.048223350253807
G2 X73.6015228426396 Y31.80203045685279 I-16.274111675126903 J0
G2 X72.79187817258884 Y29.091370558375633 I-13.624365482233502 J2.5989847715736043
G2 X71.44923857868021 Y26.60406091370558 I-12.81472081218274 J5.307106598984772
G2 X69.49492385786802 Y24.243654822335024 I-13.459390862944163 J9.147208121827411
G2 X67.13705583756345 Y22.29187817258883 I-11.50761421319797 J11.50761421319797
G2 X64.64720812182742 Y20.949238578680202 I-7.7969543147208125 J11.472081218274113
G2 X61.93908629441624 Y20.13705583756345 I-5.307106598984772 J12.81472081218274
G2 X58.88832487309645 Y19.8502538071066 I-3.048223350253807 J15.987309644670052
G2 X55.84010152284264 Y20.13705583756345 I0 J16.274111675126903
G2 X53.13197969543147 Y20.949238578680202 I2.5989847715736043 J13.624365482233502
G2 X50.642131979695435 Y22.29187817258883 I5.307106598984772 J12.81472081218274
G2 X48.28172588832487 Y24.243654822335024 I9.147208121827411 J13.459390862944163
G2 X46.32994923857868 Y26.60406091370558 I11.50761421319797 J11.50761421319797
G2 X44.98730964467005 Y29.091370558375633 I11.472081218274113 J7.7969543147208125
G2 X44.17766497461929 Y31.80203045685279 I12.81472081218274 J5.307106598984772
G2 X43.88832487309645 Y34.8502538071066 I15.987309644670052 J3.048223350253807

(follow path 2)
M5 (laser off - was G0 Z0)
G0 X88.66928934010153 Y35.628934010152285
M3 (laser on - was G1 Z-10 F800)
G2 X88.95685279187818 Y38.67766497461929 I16.274111675126903 J0 F1500
G2 X89.76649746192894 Y41.38832487309645 I13.624365482233502 J-2.5989847715736043
G2 X91.10913705583756 Y43.8756345177665 I12.81472081218274 J-5.307106598984772
G2 X93.06345177664974 Y46.236040609137056 I13.459390862944163 J-9.147208121827411
G2 X95.4238578680203 Y48.18781725888325 I11.50761421319797 J-11.50761421319797
G2 X97.91116751269035 Y49.53045685279187 I7.7969543147208125 J-11.472081218274113
G2 X100.61928934010153 Y50.34010152284264 I5.307106598984772 J-12.81472081218274
G2 X103.67005076142132 Y50.629441624365484 I3.048223350253807 J-15.987309644670052
G2 X106.71827411167513 Y50.34010152284264 I0 J-16.274111675126903
G2 X109.42639593908629 Y49.53045685279187 I-2.5989847715736043 J-13.624365482233502
G2 X111.91624365482234 Y48.18781725888325 I-5.307106598984772 J-12.81472081218274
G2 X114.2766497461929 Y46.236040609137056 I-9.147208121827411 J-13.459390862944163
G2 X116.2284263959391 Y43.8756345177665 I-11.50761421319797 J-11.50761421319797
G2 X117.57106598984771 Y41.38832487309645 I-11.472081218274113 J-7.7969543147208125
G2 X118.38071065989848 Y38.67766497461929 I-12.81472081218274 J-5.307106598984772
G2 X118.67005076142132 Y35.629441624365484 I-15.987309644670052 J-3.048223350253807
G2 X118.38071065989848 Y32.578680203045685 I-16.274111675126903 J0
G2 X117.57106598984771 Y29.870558375634516 I-13.624365482233502 J2.5989847715736043
G2 X116.2284263959391 Y27.383248730964468 I-12.81472081218274 J5.307106598984772
G2 X114.2766497461929 Y25.022842639593907 I-13.459390862944163 J9.147208121827411
G2 X111.91624365482234 Y23.071065989847718 I-11.50761421319797 J11.50761421319797
G2 X109.42639593908629 Y21.72842639593909 I-7.7969543147208125 J11.472081218274113
G2 X106.71827411167513 Y20.91624365482233 I-5.307106598984772 J12.81472081218274
G2 X103.67005076142132 Y20.62944162436548 I-3.048223350253807 J15.987309644670052
G2 X100.61928934010153 Y20.91624365482233 I0 J16.274111675126903
G2 X97.91116751269035 Y21.72842639593909 I2.5989847715736043 J13.624365482233502
G2 X95.4238578680203 Y23.071065989847718 I5.307106598984772 J12.81472081218274
G2 X93.06345177664974 Y25.022842639593907 I9.147208121827411 J13.459390862944163
G2 X91.10913705583756 Y27.383248730964468 I11.50761421319797 J11.50761421319797
G2 X89.76649746192894 Y29.870558375634516 I11.472081218274113 J7.7969543147208125
G2 X88.95685279187818 Y32.578680203045685 I12.81472081218274 J5.307106598984772
G2 X88.67005076142132 Y35.629441624365484 I15.987309644670052 J3.048223350253807

(follow path 3)
M5 (laser off - was G0 Z0)
M5
M30
