(Optimized by gcodelaseropt)
(Written by Andrew L. Sandoval)
(Generated by PartKam Version 0.05)

G21 G90 G40

(follow path 1)
M5 (laser off - was G0 Z0)
T0 M6
G17
(M3 - removed in laser mode)
G0 X133.75685279187817 Y260.0027918781726
S255
M3 (laser on - was G1 Z-10 F800)
G1 X173.002538071066 Y253.78680203045687 F1500
G1 X208.40609137055839 Y235.74873096446703
G1 X236.50253807106597 Y207.6522842639594
G1 X254.5406091370558 Y172.248730964467
G1 X260.75634517766497 Y133.00253807106597
G1 X254.5406091370558 Y93.75634517766498
G1 X236.50253807106597 Y58.35279187817258
G1 X208.40609137055839 Y30.256345177664976
G1 X173.002538071066 Y12.218274111675127
G1 X133.75634517766497 Y6.00253807106599
G1 X94.51269035532995 Y12.218274111675127
G1 X59.109137055837564 Y30.256345177664976
G1 X31.01269035532995 Y58.35279187817258
G1 X12.972081218274113 Y93.75634517766498
G1 X6.756345177664974 Y133.00253807106597
G1 X12.972081218274113 Y172.248730964467
G1 X31.01269035532995 Y207.6522842639594
G1 X59.109137055837564 Y235.74873096446703
G1 X94.51269035532995 Y253.78680203045687
G1 X133.75634517766497 Y260.002538071066
M5 (laser off - was G0 Z0)
M5
M30
