(Generated by PartKam Version 0.05)

G21 G90 G40

(follow path 1)
G0 Z15
T0 M6
G17
M3
G0 X19.70304568527919 Y25.35736040609137
G1 Z-1 F800
G3 X19.873096446700508 Y24.063451776649746 I5 J0 F1500
G3 X20.373096446700508 Y22.857868020304572 I4.82994923857868 J1.2944162436548223
G3 X21.167512690355327 Y21.822335025380713 I4.32994923857868 J2.5
G3 X22.203045685279186 Y21.027918781725887 I3.535532994923858 J3.535532994923858
G3 X23.408629441624367 Y20.527918781725887 I2.5 J4.32994923857868
G3 X24.703045685279186 Y20.357868020304572 I1.2944162436548223 J4.82994923857868
G1 X64.70304568527919 Y20.357868020304572
G3 X65.99746192893402 Y20.527918781725887 I0 J5
G3 X67.20304568527919 Y21.027918781725887 I-1.2944162436548223 J4.82994923857868
G3 X68.23857868020305 Y21.822335025380713 I-2.5 J4.32994923857868
G3 X69.03299492385787 Y22.857868020304572 I-3.535532994923858 J3.535532994923858
G3 X69.53299492385787 Y24.063451776649746 I-4.32994923857868 J2.5
G3 X69.70304568527919 Y25.357868020304572 I-4.82994923857868 J1.2944162436548223
G1 X69.70304568527919 Y45.35786802030457
G3 X69.53299492385787 Y46.65228426395939 I-5 J0
G3 X69.03299492385787 Y47.85786802030457 I-4.82994923857868 J-1.2944162436548223
G3 X68.23857868020305 Y48.89340101522842 I-4.32994923857868 J-2.5
G3 X67.20304568527919 Y49.68781725888324 I-3.535532994923858 J-3.535532994923858
G3 X65.99746192893402 Y50.18781725888325 I-2.5 J-4.32994923857868
G3 X64.70304568527919 Y50.35786802030457 I-1.2944162436548223 J-4.82994923857868
G1 X24.703045685279186 Y50.35786802030457
G3 X23.408629441624367 Y50.18781725888325 I0 J-5
G3 X22.203045685279186 Y49.68781725888324 I1.2944162436548223 J-4.82994923857868
G3 X21.167512690355327 Y48.89340101522842 I2.5 J-4.32994923857868
G3 X20.373096446700508 Y47.85786802030457 I3.535532994923858 J-3.535532994923858
G3 X19.873096446700508 Y46.65228426395939 I4.32994923857868 J-2.5
G3 X19.70304568527919 Y45.35786802030457 I4.82994923857868 J-1.2944162436548223
G1 X19.70304568527919 Y25.357868020304572

(follow path 2)
G0 Z15
G0 X24.502791878172587 Y40.4241116751269
G1 Z-1 F800
G2 X24.883248730964468 Y42.337563451776646 I5 J0 F1500
G2 X25.96700507614213 Y43.95939086294416 I4.619289340101523 J-1.9137055837563453
G2 X27.588832487309645 Y45.04314720812182 I3.535532994923858 J-3.535532994923858
G2 X29.502538071065988 Y45.4238578680203 I1.9137055837563453 J-4.619289340101523
G2 X31.416243654822335 Y45.04314720812182 I0 J-5
G2 X33.03807106598985 Y43.95939086294416 I-1.9137055837563453 J-4.619289340101523
G2 X34.12182741116751 Y42.337563451776646 I-3.535532994923858 J-3.535532994923858
G2 X34.50253807106599 Y40.4238578680203 I-4.619289340101523 J-1.9137055837563453
G2 X34.12182741116751 Y38.51015228426396 I-5 J0
G2 X33.03807106598985 Y36.88832487309645 I-4.619289340101523 J1.9137055837563453
G2 X31.416243654822335 Y35.80456852791878 I-3.535532994923858 J3.535532994923858
G2 X29.502538071065988 Y35.423857868020306 I-1.9137055837563453 J4.619289340101523
G2 X27.588832487309645 Y35.80456852791878 I0 J5
G2 X25.96700507614213 Y36.88832487309645 I1.9137055837563453 J4.619289340101523
G2 X24.883248730964468 Y38.51015228426396 I3.535532994923858 J3.535532994923858
G2 X24.502538071065988 Y40.4238578680203 I4.619289340101523 J1.9137055837563453

(follow path 3)
G0 Z15
G0 X54.44263959390863 Y40.65431472081218
G1 Z-1 F800
G2 X54.82233502538071 Y42.568527918781726 I5 J0 F1500
G2 X55.90609137055837 Y44.19035532994924 I4.619289340101523 J-1.9137055837563453
G2 X57.530456852791886 Y45.2741116751269 I3.535532994923858 J-3.535532994923858
G2 X59.44162436548224 Y45.654822335025386 I1.9137055837563453 J-4.619289340101523
G2 X61.35532994923857 Y45.2741116751269 I0 J-5
G2 X62.97715736040609 Y44.19035532994924 I-1.9137055837563453 J-4.619289340101523
G2 X64.06091370558376 Y42.568527918781726 I-3.535532994923858 J-3.535532994923858
G2 X64.44162436548224 Y40.654822335025386 I-4.619289340101523 J-1.9137055837563453
G2 X64.06091370558376 Y38.74111675126903 I-5 J0
G2 X62.97715736040609 Y37.119289340101524 I-4.619289340101523 J1.9137055837563453
G2 X61.35532994923857 Y36.035532994923855 I-3.535532994923858 J3.535532994923858
G2 X59.44162436548224 Y35.65482233502538 I-1.9137055837563453 J4.619289340101523
G2 X57.530456852791886 Y36.035532994923855 I0 J5
G2 X55.90609137055837 Y37.119289340101524 I1.9137055837563453 J4.619289340101523
G2 X54.82233502538071 Y38.74111675126903 I3.535532994923858 J3.535532994923858
G2 X54.44162436548224 Y40.654822335025386 I4.619289340101523 J1.9137055837563453
G0 Z15
M5
M30
