(Generated by PartKam Version 0.05)

G21 G90 G40

(follow path 1)
G0 Z0
T0 M6
G17
M3
G0 X60.69568527918782 Y27.191878172588833
G1 Z-10 F800
G2 X61.076142131979694 Y29.10406091370558 I5 J0 F1500
G2 X62.15989847715736 Y30.728426395939085 I4.619289340101523 J-1.9137055837563453
G2 X63.78172588832487 Y31.81218274111675 I3.535532994923858 J-3.535532994923858
G2 X65.69543147208121 Y32.192893401015226 I1.9137055837563453 J-4.619289340101523
G2 X67.60913705583756 Y31.81218274111675 I0 J-5
G2 X69.23096446700508 Y30.728426395939085 I-1.9137055837563453 J-4.619289340101523
G2 X70.31472081218274 Y29.10406091370558 I-3.535532994923858 J-3.535532994923858
G2 X70.69543147208121 Y27.192893401015226 I-4.619289340101523 J-1.9137055837563453
G2 X70.31472081218274 Y25.27918781725888 I-5 J0
G2 X69.23096446700508 Y23.65736040609137 I-4.619289340101523 J1.9137055837563453
G2 X67.60913705583756 Y22.573604060913706 I-3.535532994923858 J3.535532994923858
G2 X65.69543147208121 Y22.192893401015226 I-1.9137055837563453 J4.619289340101523
G2 X63.78172588832487 Y22.573604060913706 I0 J5
G2 X62.15989847715736 Y23.65736040609137 I1.9137055837563453 J4.619289340101523
G2 X61.076142131979694 Y25.27918781725888 I3.535532994923858 J3.535532994923858
G2 X60.69543147208122 Y27.192893401015226 I4.619289340101523 J1.9137055837563453

(follow path 2)
G0 Z0
G0 X82.43984771573604 Y55.82258883248731
G1 Z-10 F800
G1 X84.93908629441623 Y50.152284263959395 F1500
G1 X91.0989847715736 Y50.82233502538071
G1 X87.43908629441623 Y45.82233502538071
G1 X91.0989847715736 Y40.82233502538071
G1 X84.93908629441623 Y41.49238578680203
G1 X82.43908629441623 Y35.82233502538071
G1 X79.93908629441624 Y41.49238578680203
G1 X73.77918781725889 Y40.82233502538071
G1 X77.43908629441624 Y45.82233502538071
G1 X73.77918781725889 Y50.82233502538071
G1 X79.93908629441624 Y50.152284263959395
G1 X82.43908629441623 Y55.82233502538071

(follow path 3)
G0 Z0
G0 X47.77233502538071 Y56.29441624365482
G1 Z-10 F800
G1 X50.27157360406092 Y50.6243654822335 F1500
G1 X56.431472081218274 Y51.29441624365482
G1 X52.77157360406092 Y46.29441624365482
G1 X56.431472081218274 Y41.29441624365482
G1 X50.27157360406092 Y41.964467005076145
G1 X47.77157360406092 Y36.29441624365482
G1 X45.27157360406092 Y41.964467005076145
G1 X39.111675126903556 Y41.29441624365482
G1 X42.77157360406092 Y46.29441624365482
G1 X39.111675126903556 Y51.29441624365482
G1 X45.27157360406092 Y50.6243654822335
G1 X47.77157360406092 Y56.29441624365482

(follow path 4)
G0 Z0
G0 X29.910152284263958 Y29.778426395939086
G1 Z-10 F800
G3 X30.251269035532996 Y27.19035532994924 I10 J0 F1500
G3 X31.248730964467004 Y24.779187817258883 I9.65989847715736 J2.5888324873096447
G3 X32.84010152284264 Y22.70812182741117 I8.65989847715736 J5
G3 X34.911167512690355 Y21.11928934010152 I7.071065989847716 J7.071065989847716
G3 X37.32233502538071 Y20.119289340101524 I5 J8.65989847715736
G3 X39.911167512690355 Y19.779187817258883 I2.5888324873096447 J9.65989847715736
G1 X89.91116751269035 Y19.779187817258883
G3 X92.497461928934 Y20.119289340101524 I0 J10
G3 X94.91116751269035 Y21.11928934010152 I-2.5888324873096447 J9.65989847715736
G3 X96.98223350253807 Y22.70812182741117 I-5 J8.65989847715736
G3 X98.57106598984771 Y24.779187817258883 I-7.071065989847716 J7.071065989847716
G3 X99.56852791878174 Y27.19035532994924 I-8.65989847715736 J5
G3 X99.91116751269035 Y29.779187817258883 I-9.65989847715736 J2.5888324873096447
G1 X99.91116751269035 Y49.77918781725889
G3 X99.56852791878174 Y52.36548223350254 I-10 J0
G3 X98.57106598984771 Y54.77918781725889 I-9.65989847715736 J-2.5888324873096447
G3 X96.98223350253807 Y56.8502538071066 I-8.65989847715736 J-5
G3 X94.91116751269035 Y58.43908629441624 I-7.071065989847716 J-7.071065989847716
G3 X92.497461928934 Y59.43654822335026 I-5 J-8.65989847715736
G3 X89.91116751269035 Y59.77918781725889 I-2.5888324873096447 J-9.65989847715736
G1 X39.911167512690355 Y59.77918781725889
G3 X37.32233502538071 Y59.43654822335026 I0 J-10
G3 X34.911167512690355 Y58.43908629441624 I2.5888324873096447 J-9.65989847715736
G3 X32.84010152284264 Y56.8502538071066 I5 J-8.65989847715736
G3 X31.248730964467004 Y54.77918781725889 I7.071065989847716 J-7.071065989847716
G3 X30.251269035532996 Y52.36548223350254 I8.65989847715736 J-5
G3 X29.911167512690355 Y49.77918781725889 I9.65989847715736 J-2.5888324873096447
G1 X29.911167512690355 Y29.779187817258883
G0 Z0
M5
M30
